X: 454
T: The Black Haired Darling
N:"Spirited" "2nd Setting"
N:Irish title: an ceann du.b .dileas
B:O'Neill's 454
Z:Transcribed by henrik.norbeck@mailbox.swipnet.se
M:6/8
L:1/8
K:Dm
A2 ^c d2 e | f>gf f<ed | c<Af f>ed | c<Ad D2 (D/E/) |
F>GF cAc | d>ef fed | (c<AF) (G<AG) | (F<DD) D2 :|
|:d>DD D2 E | FGA Ac=B | c>CC CDE | FGA Ad^c |
d>DE F2 G | A>GA f2 d | (c<AF) (G<AG) | (F<DD) D2 :|


